!!!COM:	Bach, Johann Sebastian
!!!CDT:	1685/02/21/-1750/07/28/
!!!OTL@@DE:	Jesus, meine Zuversicht
!!!SCT:	BWV 145/8
!!!PC#:	338
!!!AGN:	chorale
**kern	**kern	**kern	**kern
*ICvox	*ICvox	*ICvox	*ICvox
*Ibass	*Itenor	*Ialto	*Isoprn
*I"Bass	*I"Tenor	*I"Alto	*I"Soprano
*>[A,A,B]	*>[A,A,B]	*>[A,A,B]	*>[A,A,B]
*>norep[A,B]	*>norep[A,B]	*>norep[A,B]	*>norep[A,B]
*>A	*>A	*>A	*>A
*clefF4	*clefGv2	*clefG2	*clefG2
*k[f#c#]	*k[f#c#]	*k[f#c#]	*k[f#c#]
*D:	*D:	*D:	*D:
*M4/4	*M4/4	*M4/4	*M4/4
*met(c)	*met(c)	*met(c)	*met(c)
*MM100	*MM100	*MM100	*MM100
=1-	=1-	=1-	=1-
4D	4A	4f#	4a
4D	4.A	8eL	8gL
.	.	8dJ	8f#J
4GG	.	8d	4b
.	4G	4e	.
4AA	.	.	4cc#
.	16ALL	8f#	.
.	16GJJ	.	.
=2	=2	=2	=2
4BB	8F#L	4.f#	4dd
.	8BJ	.	.
4E	8AL	.	4dd
.	8G#J	8e	.
2AA;	2A;	2e;	2cc#;
=3	=3	=3	=3
4GnX	4B	4e	8bL
.	.	.	8cc#J
4F#	4A	4d	4dd
4C#	4A	4e	8aL
.	.	.	8gJ
8DL	4A	4d	4f#
8CJ	.	.	.
=4	=4	=4	=4
8BBL	4G	4d	4g
8BB-J	.	.	.
8AAL	8AL	4d	4f#
8GG#J	8BJ	.	.
4AA	8BL	8dL	4e
.	16AL	8c#J	.
.	16GJJ	.	.
4D;	4F#;	4A;	4d;
=5:|!	=5:|!	=5:|!	=5:|!
*>B	*>B	*>B	*>B
4D#	4B	8B	4f#
.	.	4f#	.
[4E	4B	.	4g#
.	.	8e	.
8EL]	4c#	4f#	4a#
8DJ	.	.	.
4G	4B	8f#L	8bL
.	.	8eJ	8cc#J
=6	=6	=6	=6
8F#L	4B	4f#	4dd
8EJ	.	.	.
4F#	8A#L	4f#	4cc#
.	8eJ	.	.
2BB;	2d;	2f#;	2b;
=7	=7	=7	=7
4E	4e	4g	4cc#
4D	4f#	4a	4dd
8DL	4e	4a	4ee
8C#J	.	.	.
4D	4d	4a	4ff#
=8	=8	=8	=8
4G	4d	4b	4ee
4A	4c#	8aL	4ee
.	.	8gJ	.
2D;	2A;	2f#;	2dd;
==	==	==	==
*-	*-	*-	*-
!!!hum2abc: -Q ''
!!!title: @{PC#}. @{OTL@@DE}
!!!YOR1: 371 vierstimmige Choralges&auml;nge von Johann Sebastian Bach, 
!!!YOR2: 4th ed. by Alfred D&ouml;rffel (Leipzig: Breitkopf und H&auml;rtel, 
!!!YOR2: c.1875). 178 pp. Plate "V.A.10".  reprint: J.S. Bach, 371 Four-Part 
!!!YOR4: Chorales (New York: Associated Music Publishers, Inc., c.1940).
!!!SMS: B&H, 4th ed, Alfred D&ouml;rffel, c.1875, plate V.A.10
!!!EED:  Craig Stuart Sapp
!!!EEV:  2009/05/22
